X: 7211
T:the Harvest
M:C|
O:England
A:North-West
R:Reel
K:Bb
fgfe dedc| B2b2 b3a| g3b fdcB| cBcd F4|\
fgfe dedc| B2b2 b3a| g3b fdcB| cBcd B4::\
D2F2 E2G2| C2A2 BdBF| D2F2 E2G2| C2A2 B4|\
B,DFD B,EGE| CEAc BdBF| B,DFD B,EGE| CEAc B4:|
